X: 86
T: Mad Chief Mourns for His Grandson
N: Derived from pawnee86.krn
O: Oklahoma, U.S.A.
N: from Pawnee Music by Frances Densmore, 1926
Z: transcribed to **kern format by David Huron, August 2000
C: Skidi and Chaui Bands, 1919
L: 1/8
M: 2/4
Q: 1/4=88
K: D clef=treble
%%linebreak <none>
B,3C | 
B,7/B,/ | 
F> F F3/ F/ | 
(D/ B,/) B,B,2 | 
(C/ B,/) B, B, B,[M:3/4] | 
(C/ B,/) B,2<-B,2C | 
B,4-B,3/ F/[M:2/4] | 
D> D D3/ D/ | 
C2(D/ B,/) B, | 
B,> B, F,3/ F,/[M:3/4] | 
(D/ B,/) B, (B,/ F,/) B,!fermata!B,2[M:2/4] | 
B,3C[M:3/4] | 
B,4-B, C | 
B,> CB,7/ :|]  
